src/flags/country-flag/1F1F8-1F1EC.svg

<svg id="emoji" viewBox="0 0 72 72" xmlns="http://www.w3.org/2000/svg">
  <g id="grid">
    <path fill="#b3b3b3" d="M68,4V68H4V4H68m4-4H0V72H72V0Z"/>
    <path fill="none" stroke="#00a5ff" stroke-miterlimit="10" stroke-width="0.1" d="M12.923,10.9583H59.0769A1.9231,1.9231,0,0,1,61,12.8814V59.0352a1.9231,1.9231,0,0,1-1.9231,1.9231H12.9231A1.9231,1.9231,0,0,1,11,59.0352V12.8813A1.923,1.923,0,0,1,12.923,10.9583Z"/>
    <rect x="16" y="4" rx="2.2537" ry="2.2537" width="40" height="64" fill="none" stroke="#00a5ff" stroke-miterlimit="10" stroke-width="0.1"/>
    <rect x="16" y="4" rx="2.2537" ry="2.2537" width="40" height="64" transform="translate(72) rotate(90)" fill="none" stroke="#00a5ff" stroke-miterlimit="10" stroke-width="0.1"/>
    <circle cx="36" cy="36" r="29" fill="none" stroke="#00a5ff" stroke-miterlimit="10" stroke-width="0.1"/>
  </g>
  <g id="color">
    <rect x="5" y="17" width="62" height="38" fill="#d22f27"/>
    <rect x="5" y="36" width="62" height="19" fill="#fff"/>
    <circle cx="20" cy="22" r="1" fill="#fff"/>
    <circle cx="18" cy="27" r="1" fill="#fff"/>
    <circle cx="22" cy="27" r="1" fill="#fff"/>
    <circle cx="17" cy="24" r="1" fill="#fff"/>
    <circle cx="23" cy="24" r="1" fill="#fff"/>
    <path fill="#fff" stroke="#fff" stroke-linecap="round" stroke-linejoin="round" d="M11.1987,24.9227A4.873,4.873,0,0,1,15,20.094,4.539,4.539,0,0,0,14.0877,20a4.9273,4.9273,0,0,0,0,9.8454A4.539,4.539,0,0,0,15,29.7514,4.873,4.873,0,0,1,11.1987,24.9227Z"/>
  </g>
  <g id="line">
    <rect x="5" y="17" width="62" height="38" fill="none" stroke="#000" stroke-linecap="round" stroke-linejoin="round" stroke-width="2"/>
  </g>
</svg>

<svg viewBox="0 0 72 72" xmlns="http://www.w3.org/2000/svg"><path fill="#b3b3b3" d="M68 4v64H4V4h64m4-4H0v72h72V0z"/><path fill="none" stroke="#00a5ff" stroke-miterlimit="10" stroke-width=".1" d="M12.923 10.958h46.154A1.923 1.923 0 0161 12.881v46.154a1.923 1.923 0 01-1.923 1.923H12.923A1.923 1.923 0 0111 59.035V12.881a1.923 1.923 0 011.923-1.923z"/><rect x="16" y="4" rx="2.254" ry="2.254" width="40" height="64" fill="none" stroke="#00a5ff" stroke-miterlimit="10" stroke-width=".1"/><rect x="16" y="4" rx="2.254" ry="2.254" width="40" height="64" transform="rotate(90 36 36)" fill="none" stroke="#00a5ff" stroke-miterlimit="10" stroke-width=".1"/><circle cx="36" cy="36" r="29" fill="none" stroke="#00a5ff" stroke-miterlimit="10" stroke-width=".1"/><path d="M5 17h62v38H5z" stroke-linecap="round" stroke-miterlimit="10" stroke-width="6" stroke="#fff" fill="none" stroke-linejoin="round"/><path fill="#d22f27" d="M5 17h62v38H5z"/><path fill="#fff" d="M5 36h62v19H5z"/><circle cx="20" cy="22" r="1" fill="#fff"/><circle cx="18" cy="27" r="1" fill="#fff"/><circle cx="22" cy="27" r="1" fill="#fff"/><circle cx="17" cy="24" r="1" fill="#fff"/><circle cx="23" cy="24" r="1" fill="#fff"/><path fill="#fff" stroke="#fff" stroke-linecap="round" stroke-linejoin="round" d="M11.199 24.923A4.873 4.873 0 0115 20.094a4.539 4.539 0 00-.912-.094 4.927 4.927 0 000 9.845 4.539 4.539 0 00.912-.094 4.873 4.873 0 01-3.801-4.828z"/><g><path fill="none" stroke="#000" stroke-linecap="round" stroke-linejoin="round" stroke-width="2" d="M5 17h62v38H5z"/></g></svg>
